X:1
T:Only Christ I Own
T:Only Christ I Own
T:Andrew L. Byers, pub.1900; arr.
T:Daniel S. Warner
T:PUBLIC DOMAIN
C:Andrew L. Byers, pub.1900; arr.
Z:Daniel S. Warner
Z:PUBLIC DOMAIN
%%score ( 1 2 ) ( 3 4 )
L:1/8
Q:1/4=110
M:4/4
K:E
V:1 treble nm="Treble"
V:2 treble 
V:3 bass nm="Bass"
V:4 bass 
V:1
 E4 [EB]2 [EB]2 | [EA]4 [EG]4 | [EB]2 (([EG] [B,F])) [B,E]4 | [B,G]4 [EA]2 [EA]2 | %4
w: 1.~Who is my|life but|Christ a- _ lone?|I seek no|
w: 2.~Who is my|hope but|Christ in * me,|The hope of|
w: 3.~What is the|church but|Christ a- _ lone?|No oth- er|
w: 4.~Who but the|Sav- ior|died for * me?|He on- ly|
w: 5.~Who pur- chased|me when|lost in * sin|But Christ, whose|
 [DA]4 (([EG]2 [DA]2)) | [EB]8 | [GB]4 [Ge]2 [Ge]2 | [Fd]4 [Ee]4 | [EB]2 (([Ed] [Fc])) [GB]4 | %9
w: joy be- _|side;|His love and|peace flow|in my * soul,|
w: glo- ry *|bright?|No one but|Je- sus|set me * free,|
w: fold I *|need;|I live in|Him, the|liv- ing * vine,|
w: did a- _|tone|For all my|sins up-|on the * tree,|
w: love I *|own?|O Lamb of|God, my|all is * Thine,|
 (([EG]3 [DA])) [EB]2 [EB]2 | (A2 G2) [DF]4 | [B,E]8 |] %12
w: An * ev- er-|last- _ ing|tide.|
w: He * on- ly|is * my|light.|
w: His * word my|on- _ ly|creed.|
w: He * drank the|cup * a-|lone.|
w: I * am no|more * my|own.|
V:2
 E4 z4 | x8 | x8 | x8 | x8 | x8 | x8 | x8 | x8 | x8 | E4 z4 | x8 |] %12
V:3
 [E,G,]4 [E,G,]2 [E,B,]2 | [C,C]4 [E,B,]4 | [B,,G,]2 (([C,B,] [D,A,])) [E,G,]4 | %3
 B,4 [C,C]2 [C,A,]2 | [B,,B,]4 (B,2 A,2) | [E,G,]8 | [E,E]4 [C,E]2 [E,B,]2 | [B,,B,]4 [C,G,]4 | %8
 [G,B,]2 B,2 [G,E]4 | B,4 [E,G,]2 [G,B,]2 | C4 (B,2 A,2) | [E,G,]8 |] %12
V:4
 x8 | x8 | x8 | (G,2 G,,2) z4 | z4 B,,4 | x8 | x8 | x8 | z2 (G, A,) z4 | (E,3 F,) z4 | %10
 (F,2 A,,2) B,,4 | x8 |] %12

